X:1
T:Ayer, 77.77 D
T:Ayer, 77.77 D
T:Daniel Brink Towner, 1918
T:Public Domain Courtesy of the Cyber Hymnal™
C:Daniel Brink Towner, 1918
Z:Public Domain
Z:Courtesy of the Cyber Hymnal™
%%score ( 1 2 ) ( 3 4 )
L:1/8
Q:1/4=112
M:4/4
K:D
V:1 treble 
V:2 treble 
V:3 bass 
V:4 bass 
V:1
 [DF]3 [EG] [FA]2 [FA]2 | [GB]2 [Gc]2 [Fd]4 | [GB]3 [FB] [EB]2 [DB]2 | [Ec]2 [Fd]2 [Ge]4 | %4
 [Fd]3 [Fd] [Gc]2 [EG]2 | [Gc]2 [GB]2 [FA]4 | [GB]2 [GB]2 A [Fd]3 | [CE]2 [CF]2 D4 | %8
 [CE][CE][CE][DF] [EG]2 [CA]2 | [DF]8 | [D^G][DG][DG][CA] [DB]2 [Ec]2 | [CA]8 | %12
 [Fd]3 [Fd] [Gc]2 [EG]2 | [Ec]2 [GB]2 [FA]4 | [GB]2 [GB]2 A [Fd]3 | [CE]2 [CF]2 D4 |] %16
V:2
 x8 | x8 | x8 | x8 | x8 | x8 | x4 A x3 | x4 D4 | x8 | x8 | x8 | x8 | x8 | x8 | x4 A x3 | x4 D4 |] %16
V:3
 [D,A,]3 [D,A,] [D,D]2 [D,D]2 | [G,D]2 [E,A,]2 [D,A,]4 | G,3 G, G,2 G,2 | [E,A,]2 [D,A,]2 [A,C]4 | %4
 [D,D]3 [D,A,] [E,A,]2 [C,A,]2 | [A,,A,]2 [A,,C]2 [D,D]4 | [G,D]2 [G,D]2 [F,D] [D,A,]3 | %7
 A,2 [A,,A,]2 [D,F,]4 | A,A,A,A, A,2 A,2 | [D,A,]8 | %10
 [B,,E,][B,,E,][B,,E,][B,,E,] [E,^G,]2 [E,G,]2 | A,8 | [D,A,]3 [D,A,] [E,A,]2 [C,A,]2 | %13
 [A,,A,]2 [A,,C]2 [D,D]4 | [G,D]2 [G,D]2 [F,D] [D,A,]3 | A,2 [A,,A,]2 [D,F,]4 |] %16
V:4
 x8 | x8 | G,3 G, G,2 G,2 | x8 | x8 | x8 | x8 | A,2 x6 | A,A,A,A, A,2 A,2 | x8 | x8 | A,8 | x8 | %13
 x8 | x8 | A,2 x6 |] %16

